X: 8
T: No_17_Social_Dance_Song_(e).krn
N: Derived from No_17_Social_Dance_Song_(e).krn
%%abc-version 2.0
%%abcx-abcm2ps-target-version 5.9.1 (29 Sep 2008)
%%abc-creator hum2abc beta
%%abcx-conversion-date 2019/03/15 08:35:00
%%humdrum-veritas 849087133
%%humdrum-veritas-data 1193873952
%%linebreak <none>
%%barnumbers 0
L: 1/8
M: 2/4
K: D clef=bass
[K:clef=bass][M:2/4]B,3/D/ D/F,A,/ | 
A,3/F,/ F, z ]|:  
B,3/D/ D/F,A,/ | 
A,3/F,/ F, z | 
E3/D/ B,/A,D/ | 
B,B,/A,/ A,B,/A,/ | 
A,B,/A,/ F, z ||  
B,3/E/ D/F,A,/ | 
A,3/F,/ F, z :|]  



